flaticon/seo-and-analytics/browser-19.svg

<svg xmlns="http://www.w3.org/2000/svg" width="32" height="32" viewBox="0 0 24 24">
    <path d="M2.800781 1.199219C1.921875 1.199219 1.199219 1.921875 1.199219 2.800781 1.199219 3.679688 1.921875 4.398438 2.800781 4.398438 3.679688 4.398438 4.398438 3.679688 4.398438 2.800781 4.398438 1.921875 3.679688 1.199219 2.800781 1.199219zM2.800781 3.601562C2.359375 3.601562 2 3.238281 2 2.800781 2 2.359375 2.359375 2 2.800781 2 3.238281 2 3.601562 2.359375 3.601562 2.800781 3.601562 3.238281 3.238281 3.601562 2.800781 3.601562zM6.398438 1.199219C5.519531 1.199219 4.800781 1.921875 4.800781 2.800781 4.800781 3.679688 5.519531 4.398438 6.398438 4.398438 7.28125 4.398438 8 3.679688 8 2.800781 8 1.921875 7.28125 1.199219 6.398438 1.199219zM6.398438 3.601562C5.960938 3.601562 5.601562 3.238281 5.601562 2.800781 5.601562 2.359375 5.960938 2 6.398438 2 6.839844 2 7.199219 2.359375 7.199219 2.800781 7.199219 3.238281 6.839844 3.601562 6.398438 3.601562zM10 1.199219C9.121094 1.199219 8.398438 1.921875 8.398438 2.800781 8.398438 3.679688 9.121094 4.398438 10 4.398438 10.878906 4.398438 11.601562 3.679688 11.601562 2.800781 11.601562 1.921875 10.878906 1.199219 10 1.199219zM10 3.601562C9.558594 3.601562 9.199219 3.238281 9.199219 2.800781 9.199219 2.359375 9.558594 2 10 2 10.441406 2 10.800781 2.359375 10.800781 2.800781 10.800781 3.238281 10.441406 3.601562 10 3.601562zM10 3.601562"/>
    <path d="M 22.878906 0 L 1.160156 0 C 0.519531 0 0 0.519531 0 1.160156 L 0 22.71875 C 0 23.441406 0.558594 24 1.28125 24 L 22.71875 24 C 23.441406 24 24 23.441406 24 22.71875 L 24 1.160156 C 24 0.519531 23.480469 0 22.878906 0 Z M 23.199219 22.71875 C 23.199219 23 23 23.199219 22.71875 23.199219 L 1.28125 23.199219 C 1 23.199219 0.800781 23 0.800781 22.71875 L 0.800781 5.601562 L 23.199219 5.601562 Z M 0.800781 4.800781 L 0.800781 1.160156 C 0.800781 0.960938 0.960938 0.800781 1.160156 0.800781 L 22.839844 0.800781 C 23.039062 0.800781 23.199219 0.960938 23.199219 1.160156 L 23.199219 4.800781 Z M 0.800781 4.800781"/>
    <path d="M2.441406 22L7.160156 22C7.601562 22 8 21.601562 7.960938 21.121094L7.960938 15.238281C7.960938 14.800781 7.601562 14.398438 7.121094 14.398438L2.441406 14.398438C2 14.398438 1.601562 14.800781 1.601562 15.238281L1.601562 21.160156C1.601562 21.601562 2 22 2.441406 22zM2.398438 15.238281L2.441406 15.199219 7.121094 15.199219C7.121094 15.199219 7.160156 15.199219 7.160156 15.238281L7.160156 21.160156C7.160156 21.160156 7.160156 21.199219 7.121094 21.199219L2.441406 21.199219C2.441406 21.199219 2.398438 21.160156 2.398438 21.121094zM15.160156 15.238281C15.160156 14.800781 14.800781 14.398438 14.320312 14.398438L9.640625 14.398438C9.199219 14.398438 8.800781 14.761719 8.800781 15.238281L8.800781 21.160156C8.800781 21.601562 9.199219 22 9.640625 22L14.359375 22C14.800781 22 15.199219 21.601562 15.160156 21.121094zM14.359375 21.121094C14.359375 21.121094 14.359375 21.160156 14.320312 21.160156L9.640625 21.160156C9.640625 21.160156 9.601562 21.160156 9.601562 21.121094L9.601562 15.238281C9.601562 15.238281 9.601562 15.199219 9.640625 15.199219L14.320312 15.199219C14.320312 15.199219 14.359375 15.199219 14.359375 15.238281zM22.359375 15.238281C22.359375 14.800781 22 14.398438 21.519531 14.398438L16.839844 14.398438C16.398438 14.398438 16 14.761719 16 15.238281L16 21.160156C16 21.601562 16.398438 22 16.839844 22L21.558594 22C22 22 22.398438 21.601562 22.359375 21.121094zM21.558594 21.121094C21.558594 21.121094 21.558594 21.160156 21.519531 21.160156L16.839844 21.160156C16.839844 21.160156 16.800781 21.160156 16.800781 21.121094L16.800781 15.238281C16.800781 15.238281 16.800781 15.199219 16.839844 15.199219L21.519531 15.199219C21.519531 15.199219 21.558594 15.199219 21.558594 15.238281zM2.441406 13.199219L21.558594 13.199219C22 13.199219 22.398438 12.800781 22.398438 12.320312L22.398438 7.640625C22.398438 7.199219 22.039062 6.800781 21.558594 6.800781L2.441406 6.800781C2 6.800781 1.601562 7.199219 1.601562 7.640625L1.601562 12.359375C1.601562 12.800781 2 13.199219 2.441406 13.199219zM21.519531 7.601562C21.519531 7.601562 21.558594 7.601562 21.558594 7.640625L21.558594 12.359375C21.558594 12.359375 21.558594 12.398438 21.519531 12.398438L16.398438 12.398438 16.398438 7.601562zM2.398438 7.640625L2.441406 7.601562 15.601562 7.601562 15.601562 12.398438 2.441406 12.398438C2.441406 12.398438 2.398438 12.359375 2.398438 12.320312zM2.398438 7.640625"/>
    <path d="M3.601562 10.398438L5.601562 10.398438C5.839844 10.398438 6 10.238281 6 10 6 9.761719 5.839844 9.601562 5.601562 9.601562L3.601562 9.601562C3.359375 9.601562 3.199219 9.761719 3.199219 10 3.199219 10.238281 3.359375 10.398438 3.601562 10.398438zM7.71875 10.398438L10.320312 10.398438C10.519531 10.398438 10.71875 10.238281 10.71875 10 10.71875 9.761719 10.558594 9.601562 10.320312 9.601562L7.71875 9.601562C7.480469 9.601562 7.320312 9.761719 7.320312 10 7.320312 10.238281 7.480469 10.398438 7.71875 10.398438zM12.398438 10.398438L14.398438 10.398438C14.640625 10.398438 14.800781 10.238281 14.800781 10 14.800781 9.761719 14.640625 9.601562 14.398438 9.601562L12.398438 9.601562C12.160156 9.601562 12 9.761719 12 10 12 10.238281 12.160156 10.398438 12.398438 10.398438zM4.453125 20.210938C4.515625 20.328125 4.640625 20.398438 4.800781 20.398438 4.960938 20.398438 5.082031 20.328125 5.148438 20.210938L6.28125 19.078125C6.441406 18.921875 6.441406 18.679688 6.28125 18.519531 6.121094 18.359375 5.878906 18.359375 5.71875 18.519531L5.199219 19.039062 5.199219 16.398438C5.199219 16.160156 5.039062 16 4.800781 16 4.558594 16 4.398438 16.160156 4.398438 16.398438L4.398438 19.039062 3.878906 18.519531C3.71875 18.359375 3.480469 18.359375 3.320312 18.519531 3.160156 18.679688 3.160156 18.921875 3.320312 19.078125zM12.921875 18.519531L12.398438 19.039062 12.398438 16.398438C12.398438 16.160156 12.238281 16 12 16 11.761719 16 11.601562 16.160156 11.601562 16.398438L11.601562 19.039062 11.082031 18.519531C10.921875 18.359375 10.679688 18.359375 10.519531 18.519531 10.359375 18.679688 10.359375 18.921875 10.519531 19.078125L11.652344 20.210938C11.71875 20.328125 11.839844 20.398438 12 20.398438 12.160156 20.398438 12.28125 20.328125 12.347656 20.210938L13.480469 19.078125C13.640625 18.921875 13.640625 18.679688 13.480469 18.519531 13.320312 18.359375 13.078125 18.359375 12.921875 18.519531zM20.121094 18.519531L19.601562 19.039062 19.601562 16.398438C19.601562 16.160156 19.441406 16 19.199219 16 18.960938 16 18.800781 16.160156 18.800781 16.398438L18.800781 19.039062 18.28125 18.519531C18.121094 18.359375 17.878906 18.359375 17.71875 18.519531 17.558594 18.679688 17.558594 18.921875 17.71875 19.078125L18.851562 20.210938C18.917969 20.328125 19.039062 20.398438 19.199219 20.398438 19.359375 20.398438 19.484375 20.328125 19.546875 20.210938L20.679688 19.078125C20.839844 18.921875 20.839844 18.679688 20.679688 18.519531 20.519531 18.359375 20.28125 18.359375 20.121094 18.519531zM20.121094 18.519531"/>
</svg>

<svg xmlns="http://www.w3.org/2000/svg" width="32" height="32" viewBox="0 0 24 24">
    <path d="M2.8 1.2c-.878 0-1.6.722-1.6 1.6 0 .88.722 1.598 1.6 1.598.88 0 1.598-.718 1.598-1.597 0-.88-.718-1.602-1.597-1.602zm0 2.402A.804.804 0 0 1 2 2.8C2 2.359 2.36 2 2.8 2c.438 0 .802.36.802.8 0 .438-.364.802-.801.802zm0 0M6.398 1.2c-.878 0-1.597.722-1.597 1.6 0 .88.719 1.598 1.597 1.598C7.281 4.398 8 3.68 8 2.801c0-.88-.719-1.602-1.602-1.602zm0 2.402a.801.801 0 0 1 0-1.602c.442 0 .801.36.801.8 0 .438-.36.802-.8.802zm0 0M10 1.2c-.879 0-1.602.722-1.602 1.6 0 .88.723 1.598 1.602 1.598.879 0 1.602-.718 1.602-1.597 0-.88-.723-1.602-1.602-1.602zm0 2.402a.804.804 0 0 1-.8-.801.802.802 0 0 1 1.6 0c0 .437-.359.8-.8.8zm0 0"/>
    <path d="M22.879 0H1.16C.52 0 0 .52 0 1.16V22.72C0 23.44.559 24 1.281 24H22.72C23.44 24 24 23.441 24 22.719V1.16C24 .52 23.48 0 22.879 0zm.32 22.719c0 .281-.199.48-.48.48H1.28c-.281 0-.48-.199-.48-.48V5.602h22.398zM.801 4.8V1.16C.8.96.96.8 1.16.8H22.84c.2 0 .36.16.36.36V4.8zm0 0"/>
    <path d="M2.441 22h4.72c.44 0 .839-.398.8-.879v-5.883c0-.437-.36-.84-.84-.84h-4.68c-.441 0-.84.403-.84.84v5.922c0 .442.399.84.84.84zm-.043-6.762l.043-.039h4.68s.04 0 .04.04v5.921s0 .04-.04.04h-4.68s-.043-.04-.043-.079zm0 0M15.16 15.238c0-.437-.36-.84-.84-.84H9.64a.846.846 0 0 0-.84.84v5.922c0 .442.4.84.84.84h4.72c.44 0 .84-.398.8-.879zm-.8 5.883s0 .04-.04.04H9.64s-.038 0-.038-.04v-5.883s0-.039.039-.039h4.68s.038 0 .038.04zm0 0M22.36 15.238c0-.437-.36-.84-.84-.84h-4.68a.846.846 0 0 0-.84.84v5.922c0 .442.398.84.84.84h4.719c.441 0 .84-.398.8-.879zm-.801 5.883s0 .04-.04.04h-4.68s-.038 0-.038-.04v-5.883s0-.039.039-.039h4.68s.039 0 .039.04zm0 0M2.441 13.2H21.56c.441 0 .84-.4.84-.88V7.64c0-.44-.36-.84-.84-.84H2.44a.87.87 0 0 0-.84.84v4.72c0 .44.399.84.84.84zM21.52 7.601s.039 0 .039.039v4.718s0 .04-.04.04H16.4V7.601zM2.398 7.64l.043-.04h13.16v4.797H2.442s-.043-.039-.043-.078zm0 0"/>
    <path d="M3.602 10.398h2c.238 0 .398-.16.398-.398 0-.238-.16-.398-.398-.398h-2c-.243 0-.403.16-.403.398 0 .238.16.398.403.398zm0 0M7.719 10.398h2.601A.4.4 0 0 0 10.72 10c0-.238-.16-.398-.399-.398H7.72c-.239 0-.399.16-.399.398 0 .238.16.398.399.398zm0 0M12.398 10.398h2c.243 0 .403-.16.403-.398 0-.238-.16-.398-.403-.398h-2c-.238 0-.398.16-.398.398 0 .238.16.398.398.398zm0 0M4.453 20.21c.063.118.188.188.348.188a.38.38 0 0 0 .347-.187l1.133-1.133a.385.385 0 0 0 0-.558.39.39 0 0 0-.562 0l-.52.52v-2.642c0-.238-.16-.398-.398-.398-.242 0-.403.16-.403.398v2.641l-.52-.52a.385.385 0 0 0-.558 0 .385.385 0 0 0 0 .56zm0 0M12.922 18.52l-.524.52v-2.642c0-.238-.16-.398-.398-.398-.238 0-.398.16-.398.398v2.641l-.52-.52a.39.39 0 0 0-.562 0 .385.385 0 0 0 0 .56l1.132 1.132a.38.38 0 0 0 .348.187.38.38 0 0 0 .348-.187l1.132-1.133a.385.385 0 0 0 0-.558.385.385 0 0 0-.558 0zm0 0M20.121 18.52l-.52.52v-2.642c0-.238-.16-.398-.402-.398-.238 0-.398.16-.398.398v2.641l-.52-.52a.39.39 0 0 0-.562 0 .385.385 0 0 0 0 .56l1.133 1.132a.38.38 0 0 0 .347.187c.16 0 .285-.07.348-.187l1.133-1.133a.385.385 0 0 0 0-.558.385.385 0 0 0-.559 0zm0 0"/>
</svg>
